icons/mantra.svg

<svg width="24" height="24" viewBox="0 0 24 24" fill="none" xmlns="http://www.w3.org/2000/svg">
<path fill-rule="evenodd" clip-rule="evenodd" d="M11.4461 4.5051C11.6918 4.17164 12.1613 4.1005 12.4948 4.34621C14.5862 5.88726 15.8999 8.41116 15.8999 11.15V11.5185C18.3738 12.7744 20.183 15.1586 20.4758 18.0365C20.5033 18.0782 20.527 18.1233 20.5463 18.1715C20.7001 18.556 20.5131 18.9925 20.1285 19.1464C19.0422 19.5809 17.9478 19.8 16.7499 19.8C14.9493 19.8 13.3274 19.2508 11.9754 18.3228C10.6539 19.1901 9.08484 19.7 7.34992 19.7C6.2232 19.7 5.0737 19.5059 4.09022 19.0976C4.08441 19.0971 4.07859 19.0966 4.07276 19.096C3.66074 19.0534 3.36129 18.6848 3.40391 18.2728C3.71807 15.236 5.54099 12.6904 8.19992 11.4203V11.25C8.19992 8.61282 9.41786 6.17488 11.3754 4.62179C11.395 4.58152 11.4186 4.54246 11.4461 4.5051ZM8.35447 13.033C6.60135 14.0467 5.36599 15.7703 4.98196 17.8318C5.68583 18.0729 6.50932 18.2 7.34992 18.2C8.60537 18.2 9.75037 17.8781 10.7482 17.3151C9.57982 16.1763 8.71454 14.7235 8.35447 13.033ZM9.76502 12.4216C10.468 12.2066 11.1805 12.1 11.9499 12.1C12.7852 12.1 13.6035 12.2255 14.3045 12.4636C13.9995 13.9992 13.1557 15.3996 11.9925 16.4268C10.8444 15.3843 10.0314 14.0187 9.76502 12.4216ZM14.3962 10.9225C13.6185 10.7048 12.7781 10.6 11.9499 10.6C11.1679 10.6 10.43 10.6934 9.70968 10.8791C9.81196 8.93773 10.7118 7.1616 12.1068 5.96282C13.4704 7.18945 14.3335 8.97885 14.3962 10.9225ZM15.6951 13.1189C15.2945 14.7459 14.4048 16.2121 13.2182 17.3379C14.2469 17.9486 15.4381 18.3 16.7499 18.3C17.5277 18.3 18.2473 18.191 18.9577 17.9714C18.6787 15.9221 17.4419 14.1741 15.6951 13.1189Z" fill="black"/>
</svg>

<svg xmlns="http://www.w3.org/2000/svg" fill="none" viewBox="0 0 24 24">
  <path fill="#000" fill-rule="evenodd" d="M11.446 4.505a.75.75 0 0 1 1.049-.159C14.586 5.887 15.9 8.411 15.9 11.15v.368c2.474 1.256 4.283 3.64 4.576 6.518a.75.75 0 0 1-.347 1.11 8.899 8.899 0 0 1-3.38.654c-1.8 0-3.422-.55-4.774-1.477A8.353 8.353 0 0 1 7.35 19.7c-1.127 0-2.276-.194-3.26-.602l-.017-.002a.75.75 0 0 1-.67-.823c.315-3.037 2.138-5.583 4.797-6.853v-.17c0-2.637 1.218-5.075 3.175-6.628a.83.83 0 0 1 .071-.117Zm-3.092 8.528a6.98 6.98 0 0 0-3.372 4.799c.704.24 1.527.368 2.368.368 1.255 0 2.4-.322 3.398-.885-1.168-1.139-2.033-2.592-2.394-4.282Zm1.411-.611a7.351 7.351 0 0 1 2.185-.322c.835 0 1.654.126 2.355.364-.306 1.535-1.15 2.936-2.313 3.963-1.148-1.043-1.96-2.408-2.227-4.005Zm4.631-1.5a9.165 9.165 0 0 0-2.446-.322c-.782 0-1.52.093-2.24.28a6.982 6.982 0 0 1 2.397-4.917 6.99 6.99 0 0 1 2.29 4.96Zm1.3 2.197a8.739 8.739 0 0 1-2.478 4.219 6.85 6.85 0 0 0 3.532.962c.778 0 1.497-.109 2.208-.329-.28-2.049-1.516-3.797-3.263-4.852Z" clip-rule="evenodd"/>
</svg>
